src/lib/packages/icons/src/assets/filled/comment-code.svg

<svg width="24" height="24" viewBox="0 0 24 24" fill="none" xmlns="http://www.w3.org/2000/svg">
<path d="M12 4C7.03 4 3 6.99998 3 12.001C3 14.121 3.72995 15.8919 4.94995 17.2119C4.79995 18.1719 4.25992 19.2721 3.16992 20.1521C2.83992 20.4321 3.02996 20.9819 3.45996 20.9919C4.87996 21.0419 7.06991 20.8521 8.40991 19.4221C9.50991 19.8021 10.72 20.002 12 20.002C16.97 20.002 21 17.002 21 12.001C21 6.99998 16.97 4 12 4ZM11.03 13.47C11.323 13.763 11.323 14.238 11.03 14.531C10.884 14.677 10.692 14.751 10.5 14.751C10.308 14.751 10.116 14.678 9.96997 14.531L7.96997 12.531C7.67697 12.238 7.67697 11.763 7.96997 11.47L9.96997 9.46997C10.263 9.17697 10.738 9.17697 11.031 9.46997C11.324 9.76297 11.324 10.238 11.031 10.531L9.56104 12.001L11.03 13.47ZM16.03 12.53L14.03 14.53C13.884 14.676 13.692 14.75 13.5 14.75C13.308 14.75 13.116 14.677 12.97 14.53C12.677 14.237 12.677 13.762 12.97 13.469L14.4399 11.999L12.97 10.5291C12.677 10.2361 12.677 9.76102 12.97 9.46802C13.263 9.17502 13.738 9.17502 14.031 9.46802L16.031 11.468C16.323 11.763 16.323 12.237 16.03 12.53Z" fill="currentColor"/>
</svg>

<svg xmlns="http://www.w3.org/2000/svg" width="24" height="24" fill="none"><path fill="currentColor" d="M12 4c-4.97 0-9 3-9 8.001 0 2.12.73 3.89 1.95 5.21-.15.96-.69 2.061-1.78 2.941-.33.28-.14.83.29.84 1.42.05 3.61-.14 4.95-1.57 1.1.38 2.31.58 3.59.58 4.97 0 9-3 9-8.001C21 7 16.97 4 12 4Zm-.97 9.47a.75.75 0 0 1-1.06 1.061l-2-2a.75.75 0 0 1 0-1.061l2-2a.75.75 0 1 1 1.061 1.061l-1.47 1.47 1.469 1.469Zm5-.94-2 2a.748.748 0 0 1-1.06 0 .75.75 0 0 1 0-1.061l1.47-1.47-1.47-1.47a.75.75 0 0 1 1.061-1.061l2 2a.752.752 0 0 1-.001 1.062Z"/></svg>
